X: 5
T: 4. JINNY IN THE LOWLANDS
B: Sam Bayard, "Hill Country Tunes" 1944 #4
S: Played by Played by Emery Martin, Dunbar, PA, Oct 14 1943. Learned from his father.
N: Variant of Billy in the Lowlands (Low Grounds).
R: reel
Z: 2010 John Chambers <jc:trillian.mit.edu>
M: C|
L: 1/8
K: C
G,2- |\
G,2C2 _/E2G2 | c3d c2G2 | ABcB ABcB | AGEC D2C2 |
G,2C2 _/E2G2 | c3d c2G2 | ABcB ABcd | ee^fg a2a2 ||
[M:6/5]a2e2- e^fgf g2d2 |[M:4/4] BddB A2G2 | e^fgg a2a2 | e^fgg g2g2 |
e^fgf g2d2 | BddB A2G2 | ABcB ABcB | AGEC D2HC2 :|

%%sep 2 1 500
%%sep 1 1 500

